X:1
T:Title
%%score { ( 1 4 5 ) | ( 2 3 ) }
L:1/8
M:3/4
K:Bb
V:1 treble nm="Grand Piano"
V:4 treble 
V:5 treble 
V:2 bass 
V:3 bass 
V:1
 z2 z2[Q:1/4=92] F2 | [DF]3 [B,D] [CE][EG] | [DF][Fd] [DB]2 z F | [EF][FA] [Ac]3 [Ge] | %4
[M:5/8] [Fd]>c [DB]2 z |[M:1/8] F |[M:3/4] [DF]3 [B,D] [CE][_DG] | [DF][Fd] [DB]2 z2 | %8
 [A,C][CF] [FA]3 [Fc] |[M:7/8] [=EB]G F3 F2 |[M:3/4] [CE][Ed] [Ec]>c [DB][CA] | %11
 [DB]3 [FA] [EG][DF] | [CE][Ed] [Ec][Ec] [EB][EA] | [DB]4 BA | z z/ ^F/ [B,EG][B,GB] [FA][EG] | %15
 [DF]4 z2 | [Ec]>c [Ec][Ec] [EG][EA] |[M:3/8] [DB]3 | z B[Ec] |[M:3/4] [Fd]4 z2 | [DF]4 z2 | %21
 A-[A,A-] [CA]F Ac | [DB]4[K:bass][K:treble] z2 | [Fd]4 z2 | [DF]3 D F[DB] | Ae d3 c | %26
[M:2/4] [DB]4 |] %27
V:2
 z2 z2 D2 | B,,F, B,F, B,F, | B,,F, B,F, B,D | B,,F, A,F, C,F, |[M:5/8] A, z/ E/B,, F,B, | %5
[M:1/8] D |[M:3/4] B,,F, A,F, B,=E, | B,,F, B,F, B,C | F,C, F,C, A,F, | %9
[M:7/8] C,-[C,B,=E] [F,A,]3 D2 |[M:3/4] z2 z F, z2 | B,,F, B,F, B,F, | A,,C, F,A,, C,F, | %13
 [B,,F,]4[K:treble] DF | z G, z2 z2 | B,,F, F,F, F,D | .F,,>E C,F, C,F, |[M:3/8] B,,F,B, | %18
 FD[K:bass][B,,B,] |[M:3/4] [B,,B,]B,, B,,E DB,, | B,,B,, B,,B, D[B,,F,] | F,F, F,E C[F,A,E] | %22
 [B,,B,]B,, B,,D D[B,,F,] | [B,,B,]B,, B,,[F,A,E] [G,B,D][E,B,E] | [B,,B,]3 [F,B,] [D,B,D][B,,F,] | %25
 [F,C][F,G,G] [F,A,F]3 [F,E] |[M:2/4] [B,,F,]4 |] %27
V:3
 x6 | x6 | x6 | x6 |[M:5/8] z F, z z2 |[M:1/8] x |[M:3/4] x6 | x6 | x6 |[M:7/8] G, z z z z z2 | %10
[M:3/4] F,,A,, .C,>E F,,F, | x6 | x6 | x4[K:treble] x2 | .E,>D G,G, E,,G,, | x6 | z A,, z2 z2 | %17
[M:3/8] x3 | x2[K:bass] x |[M:3/4] x6 | x6 | x6 | x6 | x6 | x6 | x6 |[M:2/4] x4 |] %27
V:4
 x6 | x6 | x6 | x6 |[M:5/8] x5 |[M:1/8] x |[M:3/4] x6 | x6 | x6 |[M:7/8] x7 |[M:3/4] x6 | x6 | x6 | %13
 x6 | [EG]2 z2 z2 | z B, B,B, B,F | x6 |[M:3/8] x3 | x3 |[M:3/4] z B, B,c B[B,EG] | %20
 B,B, B,D F[DB] | C2 z2 z2 | z[K:bass] G, F,[K:treble]F B[Ec] | z B, B,c BG | x6 | x6 | %26
[M:2/4] x4 |] %27
V:5
 x6 | x6 | x6 | x6 |[M:5/8] x5 |[M:1/8] x |[M:3/4] x6 | x6 | x6 |[M:7/8] x7 |[M:3/4] x6 | x6 | x6 | %13
 x6 | z B, z2 z2 | x6 | x6 |[M:3/8] x3 | x3 |[M:3/4] x6 | x6 | x6 | x[K:bass] x2[K:treble] x3 | %23
 x6 | x6 | x6 |[M:2/4] x4 |] %27

